src/assets/icon/icon-favroite.svg

<svg width="20" height="20" viewBox="0 0 20 20" fill="none" xmlns="http://www.w3.org/2000/svg">
<path d="M18.3333 7.385C18.3362 8.66729 17.8422 9.90083 16.955 10.8267C14.9208 12.9358 12.9475 15.135 10.8383 17.1667C10.3542 17.625 9.58666 17.6083 9.12416 17.1292L3.045 10.8275C1.2075 8.9225 1.2075 5.8475 3.045 3.94333C3.47928 3.4875 4.00161 3.1246 4.58032 2.87664C5.15903 2.62869 5.78207 2.50083 6.41166 2.50083C7.04126 2.50083 7.66429 2.62869 8.243 2.87664C8.82171 3.1246 9.34404 3.4875 9.77833 3.94333L10 4.17167L10.2208 3.94333C10.656 3.48858 11.1785 3.12635 11.757 2.87834C12.3355 2.63033 12.9581 2.50164 13.5875 2.5C14.8542 2.5 16.065 3.02 16.9542 3.94333C17.8417 4.86904 18.336 6.10259 18.3333 7.385Z" stroke="#1D1C49" stroke-linejoin="round"/>
</svg>

<svg xmlns="http://www.w3.org/2000/svg" width="20" height="20" fill="none"><path stroke="#1D1C49" stroke-linejoin="round" d="M18.333 7.385a4.958 4.958 0 0 1-1.378 3.442c-2.034 2.109-4.007 4.308-6.117 6.34a1.22 1.22 0 0 1-1.714-.038l-6.079-6.302c-1.837-1.905-1.837-4.98 0-6.884a4.65 4.65 0 0 1 6.733 0l.222.229.22-.229A4.677 4.677 0 0 1 13.588 2.5c1.267 0 2.478.52 3.367 1.443a4.958 4.958 0 0 1 1.38 3.442Z"/></svg>
